X:12
T:Blarney Pilgrim
Z: id:dc-jig-9
M:6/8
L:1/8
K:G Major
D3 DEG|A3 ABc|BAG AGE|GEA GED|!
D3 DEG|A3 ABc|BAG AGE|GED D3:|!
d3 dBG|AGA BGE|d3 dBG|AGA G2d|!
gfe dBG|AGA BGE|B2G AGE|GAG G3:|!
ADD BDD|ADD ABc|BAG AGE|GEA GED|!
ADD BDD|ADD ABc|BAG AGE|GED D3:|!